X: 40
T: The sound of his footsteps
N: Derived from ojibwa40.krn
C: Chippewa Songs ~ 1910
O: Red Wing, Minnesota, U.S.A
N: Chippewa Music by Frances Densmore, 1910
Z: transcribed to **kern format by Paul von Hippel and Daniel T. Shanahan
L: 1/8
M: 3/8
Q: 1/4=108
K: Eb clef=bass
%%linebreak <none>
E2B, | 
E2F | 
EE2 | 
[M:2/8]F E | 
[M:3/8]EB,2 | 
B,2F, | 
B,2E | 
B,B,2 | 
[M:2/8]E2 | 
[M:3/8]B,F,2 | 
F,2E, | 
F,2B, | 
F,F,2 | 
[M:2/8]G, G, | 
[M:3/8]F,E,2 | 
E,2B,, | 
E,2F, | 
E,E,2 | 
E,E,2 | 
B,,3 | 
B,,3 | 
[M:2/8]B, B, | 
B,3/ F,/ | 
[M:3/8]B, B, E3// E// | 
[M:2/8]G, G, | 
E2 | 
[M:3/8]B,2F, | 
F,2E, | 
F,2B, | 
F,F,2 | 
[M:2/8]G, G, | 
[M:3/8]F,E,2 | 
E,2B,, | 
E,2F, | 
E,E,2 | 
B,,3 | 
B,,3 |]  



